src/assets/icons/remotes/swift.svg

<svg width="24" height="24" viewBox="0 0 24 24" fill="currentColor" xmlns="http://www.w3.org/2000/svg">
    <path
        d="M22 4.28562V8.52372H17.1905V7.57134C17.1905 7.36927 17.1102 7.17547 16.9673 7.03259C16.8244 6.8897 16.6306 6.80943 16.4286 6.80943H7.57143C7.36936 6.80943 7.17557 6.8897 7.03268 7.03259C6.8898 7.17547 6.80952 7.36927 6.80952 7.57134V8.52372H2V4.28562C2 3.78045 2.20068 3.29596 2.55789 2.93875C2.9151 2.58154 3.39959 2.38086 3.90476 2.38086H20.0952C20.6004 2.38086 21.0849 2.58154 21.4421 2.93875C21.7993 3.29596 22 3.78045 22 4.28562Z" />
    <path d="M6.80952 9.71484H2V14.3291H6.80952V9.71484Z" />
    <path d="M22 9.71484H17.1905V14.3291H22V9.71484Z" />
    <path
        d="M22 15.4766V19.7147C22 20.2198 21.7993 20.7043 21.4421 21.0615C21.0849 21.4187 20.6004 21.6194 20.0952 21.6194H3.90476C3.39959 21.6194 2.9151 21.4187 2.55789 21.0615C2.20068 20.7043 2 20.2198 2 19.7147V15.4766H6.80952V16.4289C6.80952 16.631 6.8898 16.8248 7.03268 16.9677C7.17557 17.1106 7.36936 17.1908 7.57143 17.1908H16.4286C16.6306 17.1908 16.8244 17.1106 16.9673 16.9677C17.1102 16.8248 17.1905 16.631 17.1905 16.4289V15.4766H22Z" />
</svg>

<svg xmlns="http://www.w3.org/2000/svg" width="24" height="24" fill="currentColor" viewBox="0 0 24 24"><path d="M22 4.286v4.238h-4.81V7.57a.76.76 0 0 0-.761-.762H7.57a.76.76 0 0 0-.761.762v.953H2V4.286A1.905 1.905 0 0 1 3.905 2.38h16.19A1.905 1.905 0 0 1 22 4.286M6.81 9.715H2v4.614h4.81zm15.19 0h-4.81v4.614H22zm0 5.762v4.238a1.905 1.905 0 0 1-1.905 1.904H3.905A1.905 1.905 0 0 1 2 19.715v-4.238h4.81v.952a.76.76 0 0 0 .761.762h8.858a.76.76 0 0 0 .762-.762v-.952z"/></svg>
